packages/icons/svg/Fill/arrow-circle-up.svg

<svg fill="none" height="24" viewBox="0 0 24 24" width="24" xmlns="http://www.w3.org/2000/svg"><path clip-rule="evenodd" d="m8.30952 10.1386 2.99998-2.86202c.045-.043.101-.064.151-.097.054-.036.102-.079.162-.104.121-.049.249-.076.377-.076.131 0 .261.027.383.077.122.051.233.124.325.217l2.999 2.99902c.391.391.391 1.024 0 1.414-.39.391-1.023.391-1.414 0l-1.293-1.293v5.586c0 .553-.447 1-1 1-.552 0-1-.447-1-1v-5.663l-1.30898 1.249c-.4.381-1.032.367-1.414-.033s-.366-1.033.033-1.414zm3.68998 11.8609c5.515 0 10-4.486 10-10 0-5.51399-4.485-9.99999-10-9.99999-5.51399 0-9.99999 4.486-9.99999 9.99999 0 5.514 4.486 10 9.99999 10z" fill="#6b7280" fill-rule="evenodd"/></svg>

<svg width="24" height="24" viewBox="0 0 24 24" fill="none" xmlns="http://www.w3.org/2000/svg">
<g id="Icon/Fill/arrow-circle-up">
<path id="Mask" fill-rule="evenodd" clip-rule="evenodd" d="M8.30951 10.1387L11.3095 7.27669C11.3545 7.2337 11.4105 7.21269 11.4605 7.17969C11.5145 7.14369 11.5625 7.10069 11.6225 7.0757C11.7435 7.02669 11.8715 6.99969 11.9995 6.99969C12.1305 6.99969 12.2605 7.02669 12.3825 7.07669C12.5045 7.12769 12.6155 7.2007 12.7075 7.29369L15.7065 10.2927C16.0975 10.6837 16.0975 11.3167 15.7065 11.7067C15.3165 12.0977 14.6835 12.0977 14.2925 11.7067L12.9995 10.4137V15.9997C12.9995 16.5527 12.5525 16.9997 11.9995 16.9997C11.4475 16.9997 10.9995 16.5527 10.9995 15.9997V10.3367L9.69051 11.5857C9.29051 11.9667 8.65851 11.9527 8.27651 11.5527C7.89451 11.1527 7.91051 10.5197 8.30951 10.1387ZM11.9995 21.9997C17.5145 21.9997 21.9995 17.5137 21.9995 11.9997C21.9995 6.48569 17.5145 1.99969 11.9995 1.99969C6.48551 1.99969 1.99951 6.48569 1.99951 11.9997C1.99951 17.5137 6.48551 21.9997 11.9995 21.9997Z" fill="#000000"/>
</g>
</svg>
